X: 27
T: No_34_Corn_Plant,_I_Sing_for_You.krn
N: Derived from No_34_Corn_Plant,_I_Sing_for_You.krn
%%abc-version 2.0
%%abcx-abcm2ps-target-version 5.9.1 (29 Sep 2008)
%%abc-creator hum2abc beta
%%abcx-conversion-date 2019/03/15 08:25:35
%%humdrum-veritas 1900878637
%%humdrum-veritas-data 3908608900
%%linebreak <none>
%%barnumbers 0
L: 1/8
M: 3/4
K: C clef=bass
[K:clef=bass][M:3/4]G,3/G,/ G,3/G,/ G,3/G,/ ]|:  
[M:2/4]F3/F/ !fermata!ED | 
A,3/A,/ (3A,G,G, | 
D3/D/ !fermata!DC | 
[M:3/4]D3/D/ (3DCA, G,3/A,/ | 
[M:2/4]C3/C/ C3/A,/ | 
A,3/A,/ A,3/C/ | 
[M:3/4]G,3/G,/ G,3/G,/ G, z | 
(3CG,G, G,3/G,/ (3A,G,G, :|]|:  
[M:2/4]A,/D3/ (3CB,A, | 
(3G,G,G, (3A,G,G, | 
G,3/G,/ (3A,A,G, | 
A,3/A,/G,2 | 
A,/D3/ (3CB,A, | 
(3G,G,G, (3A,G,G, | 
G,3/G,/ (3A,A,G, | 
A,3/A,/G,2 :|]  



